X:1
T: Lord Kingarth
C:
R:Reel
Q: 232
K:Am
M:4/4
L:1/8
|:B|eA A1/2A1/2A ed Bd|eA A1/2A1/2A GA Bd|eA A1/2A1/2A ed Bd|ed gB A3B|
eA A1/2A1/2A ed Bd|eA A1/2A1/2A GA Bd|eA A1/2A1/2A ed Bd|ed gB A3d|
ed eg ab ag|de dB de gd|ed eg ab ag|ed gB B2 Ad|
ed eg ab ag|de dB de gd|ed eg ab ag|ed gB A3:|
